icons/telescope-filled-16.svg

<svg width="16" height="16" viewBox="0 0 16 16" fill="none" xmlns="http://www.w3.org/2000/svg">
<g clip-path="url(#clip0)">
<path fill-rule="evenodd" clip-rule="evenodd" d="M8.5311 10.2107C8.86497 10.0499 9.2662 10.1571 9.47545 10.4629L12.119 14.3265C12.3529 14.6684 12.2654 15.1351 11.9235 15.369C11.5817 15.6029 11.1149 15.5154 10.881 15.1736L9.00001 12.4244V15.2501C9.00001 15.6643 8.66423 16.0001 8.25001 16.0001C7.8358 16.0001 7.50001 15.6643 7.50001 15.2501V12.4244L5.61899 15.1736C5.3851 15.5154 4.91835 15.6029 4.5765 15.369C4.23465 15.1351 4.14713 14.6684 4.38103 14.3265L6.42866 11.3339C6.50277 11.2255 6.60401 11.1386 6.72227 11.0816L8.5311 10.2107Z" fill="#24292E"/>
<path fill-rule="evenodd" clip-rule="evenodd" d="M11.9048 0.420725C12.6258 -0.0708858 13.6126 0.154316 14.0489 0.910033L15.7405 3.84005C16.1769 4.59576 15.8785 5.56297 15.0922 5.94154L2.89465 11.8147C2.18745 12.1552 1.33732 11.8929 0.94487 11.2132L0.265726 10.0369C-0.126728 9.35713 0.071216 8.48977 0.71971 8.04758L11.9048 0.420725ZM3.27931 8.11778L4.11366 9.56291L5.46895 8.91034L4.5221 7.27035L3.27931 8.11778ZM11.0068 6.24385L9.60027 3.80766L10.8431 2.96024L12.3621 5.59128L11.0068 6.24385Z" fill="#24292E"/>
</g>
<defs>
<clipPath id="clip0">
<rect width="16" height="16" fill="white"/>
</clipPath>
</defs>
</svg>

<svg xmlns="http://www.w3.org/2000/svg" width="16" height="16" viewBox="0 0 16 16"><path fill-rule="evenodd" d="M8.531 10.21a.75.75 0 01.944.253l2.644 3.864a.75.75 0 11-1.238.847L9 12.424v2.826a.75.75 0 01-1.5 0v-2.826l-1.881 2.75a.75.75 0 01-1.238-.848l2.048-2.992a.75.75 0 01.293-.252l1.81-.871zM11.905.42a1.5 1.5 0 012.144.49l1.692 2.93a1.5 1.5 0 01-.649 2.102L2.895 11.815a1.5 1.5 0 01-1.95-.602l-.68-1.176a1.5 1.5 0 01.455-1.99L11.905.422zM3.279 8.119l.835 1.445 1.355-.653-.947-1.64-1.243.848zm7.728-1.874L9.6 3.808l1.243-.848 1.52 2.631-1.356.653z"/></svg>
